X: 40
T:Old Mother Flanagan
M:C|
L:1/8
R:reel
N:Compare Greenfields of America and Off to California.
H:http://trillian.mit.edu/~jc/music/abc/Contra/reel/OldMotherFlanagan.a
H:1999-04-12 04:27:07 UT
Z:John Chambers <jc@eddie.mit.edu> http://eddie.mit.edu/~jc/music/
K:A
|:"A"a2a2 fecd|efec "(E)"BAFG|"A"ABAF EFAB|1 cBcd "E7"e4:|2 "E7"cAB2 "A"A4:|!
|:"A"ABAF EFAB|c2cA "(E)"BAFG|"A"ABAF EFAB|cBcd "E7"e4||!
"D"f2fd "A"efec|"Bm"BcBA "E7"FEFG|"A"ABAF EFAB|"E7"cAB2 "A"A4:|!
bc
